icons/hospice.svg

<svg width="48" height="48" viewBox="0 0 48 48" fill="none" xmlns="http://www.w3.org/2000/svg">
<path fill-rule="evenodd" clip-rule="evenodd" d="M41.7083 23.7942L24.0579 6.08594L6.29405 23.7919C5.90289 24.1818 5.90185 24.8149 6.29174 25.2061C6.68163 25.5973 7.31479 25.5983 7.70595 25.2084L10 22.9218V41C10 41.5523 10.4477 42 11 42H37C37.5523 42 38 41.5523 38 41V22.9068L40.2917 25.2061C40.6816 25.5973 41.3148 25.5983 41.7059 25.2084C42.0971 24.8185 42.0981 24.1854 41.7083 23.7942ZM24.0533 8.91437L36 20.9003V40H12V20.9284L24.0533 8.91437Z" fill="black"/>
<path d="M16 25.5173C16 22.6546 17.7938 20.0001 20.25 20.0001C21.9545 20.0001 23.2193 21.1911 24 22.8806C24.7807 21.1912 26.0454 20.0001 27.75 20.0001C30.2065 20.0001 32 22.6551 32 25.5173C32 31.6445 24 36.0001 24 36.0001C24 36.0001 18.6112 33.2437 16.6791 28.7223C16.5405 28.3979 16.4197 28.0644 16.3199 27.7223C16.116 27.0227 16 26.2866 16 25.5173Z" fill="black"/>
</svg>

<svg
  xmlns="http://www.w3.org/2000/svg"
  width="24"
  height="24"
  viewBox="0 0 24 24"
  fill="none"
  stroke="currentColor"
  stroke-width="2"
  stroke-linecap="round"
  stroke-linejoin="round"
>
  <path
    fill-rule="evenodd"
    d="M41.708 23.794 24.058 6.086 6.294 23.792a1 1 0 1 0 1.412 1.416L10 22.922V41a1 1 0 0 0 1 1h26a1 1 0 0 0 1-1V22.907l2.292 2.3a1 1 0 1 0 1.416-1.413M24.053 8.914 36 20.9V40H12V20.928z"
    clip-rule="evenodd"
  />
  <path d="M16 25.517C16 22.655 17.794 20 20.25 20c1.704 0 2.97 1.191 3.75 2.88.78-1.689 2.045-2.88 3.75-2.88 2.456 0 4.25 2.655 4.25 5.517C32 31.645 24 36 24 36s-5.389-2.756-7.32-7.278a9 9 0 0 1-.36-1 7.9 7.9 0 0 1-.32-2.205" />
</svg>
